X:8
T:Kreuzpolka ussim Klettgau  GD&C (tinwhistle in D)
T:kp04915 (Hanny Christen)
%%MIDI program 72   % 111 /74 / 79=whistle
M:2/4
L:1/8
K:G %%MIDI gchordon
"G"GB/2A/2 GF | "C"!>!E2.c2 | "D7"DF/2E/2 D"_ ="C | "G"!>!B,2.B2 | B^C/2D/2 AG | "D7"G>F C2 |1 c^C/2D/2 BA | "G"A>GD2 :|2 "D7"c>c BA | "G"GG G"_fine"z |] 
[K:Dmaj] |: "D"AF/2F/2 D"_ ="B | "A7"!>!A2.G2 | AG/2G/2 Ec | "D"!>!B2.A2 | AF/2D/2 B>A |1 "A7"ABc2 | AG/2C/2 B>A | AC"D"F2 :|2 "G"BBB2 | "A7"AG/2C/2 B>A | "D"DD D"_>Teil A"z |] 
[K:Cmaj] |: "G7"D>E FA | "C"!>!G2.e2 | E>E AG | "G7"!>!F2.B2 | BB/2B/2 Bc | dE F>^F |1 "D7"G^F/2G/2 BA | "G"GG Gz :|2 "G7"GG/2^G/2 A>B | "C"cc cz |] 
W:P: ABACA

